public/Logos/hackthehill-banner.svg

<svg width="635" height="96" viewBox="0 0 635 96" fill="none" xmlns="http://www.w3.org/2000/svg">
  <path d="M577.796 3.60403H577.542V7.55829H577.796V3.60403Z" fill="#C11F25"/>
  <path d="M585.957 54.2678H569.381V94.3043H585.957V54.2678Z" fill="#C11F25"/>
  <path d="M585.957 36.2266H569.381V52.2906H585.957V36.2266Z" fill="#C11F25"/>
  <path d="M566.32 52.2906H589.016L587.742 54.2678H567.595L566.32 52.2906Z" fill="#84010B"/>
  <path d="M568.744 38.6979C568.955 38.6979 569.126 38.532 569.126 38.3272C569.126 38.1224 568.955 37.9565 568.744 37.9565C568.532 37.9565 568.361 38.1224 568.361 38.3272C568.361 38.532 568.532 38.6979 568.744 38.6979Z" fill="#C11F25"/>
  <path d="M586.594 38.6979C586.805 38.6979 586.976 38.532 586.976 38.3272C586.976 38.1224 586.805 37.9565 586.594 37.9565C586.383 37.9565 586.212 38.1224 586.212 38.3272C586.212 38.532 586.383 38.6979 586.594 38.6979Z" fill="#C11F25"/>
  <path d="M577.669 7.55843L585.951 36.2884H569.387L577.669 7.55843Z" fill="#84010B"/>
  <path d="M578.56 6.56973H576.775V10.524H578.56V6.56973Z" fill="#84010B"/>
  <path d="M587.741 42.405H585.446V52.2907H587.741V42.405Z" fill="#F6BFBF"/>
  <path d="M569.891 42.405H567.596V52.2907H569.891V42.405Z" fill="#F6BFBF"/>
  <path d="M572.951 64.6477C573.232 64.6477 573.461 62.7665 573.461 60.4462C573.461 58.1259 573.232 56.2448 572.951 56.2448C572.669 56.2448 572.44 58.1259 572.44 60.4462C572.44 62.7665 572.669 64.6477 572.951 64.6477Z" fill="#EEE4D4"/>
  <path d="M576.011 64.6477C576.292 64.6477 576.521 62.7665 576.521 60.4462C576.521 58.1259 576.292 56.2448 576.011 56.2448C575.73 56.2448 575.501 58.1259 575.501 60.4462C575.501 62.7665 575.73 64.6477 576.011 64.6477Z" fill="#EEE4D4"/>
  <path d="M582.131 64.6477C582.412 64.6477 582.641 62.7665 582.641 60.4462C582.641 58.1259 582.412 56.2448 582.131 56.2448C581.85 56.2448 581.621 58.1259 581.621 60.4462C581.621 62.7665 581.85 64.6477 582.131 64.6477Z" fill="#EEE4D4"/>
  <path d="M579.072 64.6477C579.353 64.6477 579.582 62.7665 579.582 60.4462C579.582 58.1259 579.353 56.2448 579.072 56.2448C578.79 56.2448 578.562 58.1259 578.562 60.4462C578.562 62.7665 578.79 64.6477 579.072 64.6477Z" fill="#EEE4D4"/>
  <path d="M582.897 0.391296H577.542V3.60417H582.897V0.391296Z" fill="#C11F25"/>
  <path d="M568.744 37.9565L567.528 42.5903H569.958L568.744 37.9565Z" fill="#84010B"/>
  <path d="M586.594 37.9565L585.38 42.5903H587.809L586.594 37.9565Z" fill="#84010B"/>
  <path d="M577.796 51.0549C581.598 51.0549 584.682 48.0674 584.682 44.3821C584.682 40.6968 581.598 37.7094 577.796 37.7094C573.994 37.7094 570.91 40.6968 570.91 44.3821C570.91 48.0674 573.994 51.0549 577.796 51.0549Z" fill="#F6BFBF"/>
  <path d="M577.796 50.0663C581.036 50.0663 583.662 47.5214 583.662 44.3821C583.662 41.2428 581.036 38.6979 577.796 38.6979C574.557 38.6979 571.931 41.2428 571.931 44.3821C571.931 47.5214 574.557 50.0663 577.796 50.0663Z" fill="#EEE4D4"/>
  <path d="M577.668 45.1235C578.021 45.1235 578.306 44.8469 578.306 44.5056C578.306 44.1644 578.021 43.8878 577.668 43.8878C577.316 43.8878 577.03 44.1644 577.03 44.5056C577.03 44.8469 577.316 45.1235 577.668 45.1235Z" fill="#C11F25"/>
  <path d="M577.67 44.5058L574.991 46.3593" stroke="#C11F25"/>
  <path d="M577.67 44.5058L580.949 47.2808" stroke="#C11F25"/>
  <path d="M57.9859 94.3044V50.7287C57.9859 38.4574 48.9414 31.0696 35.8914 31.0696C27.3638 31.0696 19.6113 35.2017 17.1564 40.7113V10.1583H0.359375V94.3044H17.1564V58.993C17.1564 50.7287 21.8078 43.967 30.2063 43.967C37.8296 43.967 41.0597 46.847 41.0597 56.113V94.3044H57.9859ZM103.846 70.8887C103.716 78.1513 97.256 84.287 88.5991 84.287C83.3016 84.287 80.459 82.0331 80.459 77.4C80.459 72.1409 83.56 69.5113 93.1214 67.7583C99.3233 66.6313 102.295 65.7548 103.975 64.127L103.846 70.8887ZM120.772 94.3044V55.3617C120.772 39.8348 113.795 31.0696 93.6382 31.0696C73.2234 31.0696 65.9878 39.96 65.7294 52.7322H81.3635C82.1387 47.2226 85.2397 43.5913 92.863 43.5913C99.4525 43.5913 103.587 45.9704 103.587 49.9774C103.587 54.2348 101.261 55.8626 92.863 56.9896C75.9368 59.2435 63.6621 61.247 63.6621 79.0278C63.6621 89.0452 70.3808 95.9322 84.8521 95.9322C93.3798 95.9322 100.099 93.0522 104.104 88.7948C104.233 90.673 104.621 92.8018 105.138 94.3044H120.772ZM168.492 72.0157C167.846 78.6522 162.678 82.2835 156.088 82.2835C149.499 82.2835 143.684 75.7722 143.684 62.3739C143.684 48.9757 149.499 44.593 156.605 44.593C162.936 44.593 167.717 48.3496 168.621 54.7357H185.547C184.514 40.2104 173.273 31.0696 156.734 31.0696C138.904 31.0696 127.016 40.7113 127.016 62.7496C127.016 84.7878 138.904 95.9322 156.217 95.9322C171.593 95.9322 183.609 86.2904 185.418 72.0157H168.492ZM248.271 94.3044L227.469 55.3617L248.788 32.6974H228.244L207.312 56.113V10.1583H190.386V94.3044H207.312V74.7704L215.452 66.6313L229.407 94.3044H248.271ZM320.059 69.7617C320.059 77.4 316.958 81.7826 310.239 81.7826C303.391 81.7826 300.549 77.2748 300.549 69.5113V44.2174H335.693V32.6974H300.549V16.0435H284.01V71.1391C284.01 84.4122 291.375 95.9322 309.981 95.9322C327.941 95.9322 335.693 84.287 335.693 71.2644V53.7339H320.059V69.7617ZM400.184 94.3044V50.7287C400.184 38.4574 391.139 31.0696 378.09 31.0696C369.562 31.0696 361.809 35.2017 359.354 40.7113V10.1583H342.557V94.3044H359.354V58.993C359.354 50.7287 364.006 43.967 372.404 43.967C380.028 43.967 383.258 46.847 383.258 56.113V94.3044H400.184ZM423.432 57.4904C424.078 48.9757 429.634 43.967 436.353 43.967C442.942 43.967 449.144 48.3496 449.403 57.4904H423.432ZM466.716 67.7583C466.716 43.3409 456.38 31.0696 436.87 31.0696C417.359 31.0696 406.118 43.3409 406.118 62.3739C406.118 84.6626 416.713 95.9322 437.903 95.9322C451.47 95.9322 461.936 88.7948 465.812 76.1478H448.498C447.335 80.4052 442.555 83.0348 437.128 83.0348C428.859 83.0348 423.432 77.0244 422.915 67.7583H466.716Z" fill="#84010B"/>
  <path d="M561.315 94.3043V50.7287C561.315 38.4574 552.271 31.0696 539.221 31.0696C530.693 31.0696 522.94 35.2017 520.485 40.7113V10.1583H503.688V94.3043H520.485V58.993C520.485 50.7287 525.137 43.9669 533.535 43.9669C541.159 43.9669 544.389 46.847 544.389 56.113V94.3043H561.315Z" fill="#84010B"/>
  <path d="M610.703 94.3043V10.1583H593.906V94.3043H610.703ZM634.551 94.3043V10.1583H617.754V94.3043H634.551Z" fill="#84010B"/>
</svg>

<svg xmlns="http://www.w3.org/2000/svg" fill="none" viewBox="0 0 635 96"><path fill="#C11F25" d="M577.796 3.604h-.254v3.954h.254V3.604Z"/><path fill="#C11F25" d="M585.957 54.268h-16.576v40.036h16.576V54.268Z"/><path fill="#C11F25" d="M585.957 36.227h-16.576V52.29h16.576V36.227Z"/><path fill="#84010B" d="M566.32 52.29h22.696l-1.274 1.978h-20.147l-1.275-1.977Z"/><path fill="#C11F25" d="M568.744 38.698a.376.376 0 0 0 .382-.37.376.376 0 0 0-.382-.372.377.377 0 0 0-.383.371c0 .205.171.37.383.37Z"/><path fill="#C11F25" d="M586.594 38.698a.376.376 0 0 0 .382-.37.376.376 0 0 0-.382-.372.376.376 0 0 0-.382.371c0 .205.171.37.382.37Z"/><path fill="#84010B" d="m577.669 7.558 8.282 28.73h-16.564l8.282-28.73Z"/><path fill="#84010B" d="M578.56 6.57h-1.785v3.954h1.785V6.57Z"/><path fill="#F6BFBF" d="M587.741 42.405h-2.295v9.886h2.295v-9.886Z"/><path fill="#F6BFBF" d="M569.891 42.405h-2.295v9.886h2.295v-9.886Z"/><path fill="#EEE4D4" d="M572.951 64.648c.281 0 .51-1.881.51-4.202 0-2.32-.229-4.201-.51-4.201-.282 0-.511 1.88-.511 4.201 0 2.32.229 4.202.511 4.202Z"/><path fill="#EEE4D4" d="M576.011 64.648c.281 0 .51-1.881.51-4.202 0-2.32-.229-4.201-.51-4.201s-.51 1.88-.51 4.201c0 2.32.229 4.202.51 4.202Z"/><path fill="#EEE4D4" d="M582.131 64.648c.281 0 .51-1.881.51-4.202 0-2.32-.229-4.201-.51-4.201s-.51 1.88-.51 4.201c0 2.32.229 4.202.51 4.202Z"/><path fill="#EEE4D4" d="M579.072 64.648c.281 0 .51-1.881.51-4.202 0-2.32-.229-4.201-.51-4.201-.282 0-.51 1.88-.51 4.201 0 2.32.228 4.202.51 4.202Z"/><path fill="#C11F25" d="M582.897.391h-5.355v3.213h5.355V.391Z"/><path fill="#84010B" d="m568.744 37.956-1.216 4.634h2.43l-1.214-4.634Z"/><path fill="#84010B" d="m586.594 37.956-1.214 4.634h2.429l-1.215-4.634Z"/><path fill="#F6BFBF" d="M577.796 51.055c3.802 0 6.886-2.988 6.886-6.673s-3.084-6.673-6.886-6.673-6.886 2.988-6.886 6.673 3.084 6.673 6.886 6.673Z"/><path fill="#EEE4D4" d="M577.796 50.066c3.24 0 5.866-2.545 5.866-5.684 0-3.14-2.626-5.684-5.866-5.684-3.239 0-5.865 2.545-5.865 5.684 0 3.14 2.626 5.684 5.865 5.684Z"/><path fill="#C11F25" d="M577.668 45.123a.628.628 0 0 0 .638-.617.628.628 0 0 0-.638-.618.628.628 0 0 0-.638.618c0 .34.286.617.638.617Z"/><path fill="#84010B" d="M57.986 94.304V50.73c0-12.272-9.045-19.66-22.095-19.66-8.527 0-16.28 4.133-18.735 9.642V10.158H.36v84.146h16.797V58.993c0-8.264 4.652-15.026 13.05-15.026 7.624 0 10.854 2.88 10.854 12.146v38.191h16.926Zm45.86-23.415c-.13 7.262-6.59 13.398-15.247 13.398-5.297 0-8.14-2.254-8.14-6.887 0-5.26 3.101-7.889 12.662-9.642 6.202-1.127 9.174-2.003 10.854-3.631l-.129 6.762Zm16.926 23.415V55.362c0-15.527-6.977-24.292-27.134-24.292-20.415 0-27.65 8.89-27.909 21.662h15.635c.775-5.51 3.876-9.14 11.499-9.14 6.59 0 10.724 2.378 10.724 6.385 0 4.258-2.326 5.886-10.724 7.013-16.926 2.253-29.2 4.257-29.2 22.038 0 10.017 6.718 16.904 21.19 16.904 8.527 0 15.246-2.88 19.251-7.137.129 1.878.517 4.007 1.034 5.51h15.634Zm47.72-22.288c-.646 6.636-5.814 10.267-12.404 10.267-6.589 0-12.404-6.51-12.404-19.91 0-13.397 5.815-17.78 12.921-17.78 6.331 0 11.112 3.757 12.016 10.143h16.926c-1.033-14.526-12.274-23.666-28.813-23.666-17.83 0-29.718 9.641-29.718 31.68 0 22.038 11.888 33.182 29.201 33.182 15.376 0 27.392-9.642 29.201-23.916h-16.926Zm79.779 22.288-20.802-38.942 21.319-22.665h-20.544l-20.932 23.416V10.158h-16.926v84.146h16.926V74.77l8.14-8.139 13.955 27.673h18.864Zm71.788-24.542c0 7.638-3.101 12.02-9.82 12.02-6.848 0-9.69-4.507-9.69-12.27V44.216h35.144v-11.52h-35.144V16.043H284.01V71.14c0 13.273 7.365 24.793 25.971 24.793 17.96 0 25.712-11.645 25.712-24.668v-17.53h-15.634v16.028Zm80.125 24.542V50.73c0-12.272-9.045-19.66-22.094-19.66-8.528 0-16.281 4.133-18.736 9.642V10.158h-16.797v84.146h16.797V58.993c0-8.264 4.652-15.026 13.05-15.026 7.624 0 10.854 2.88 10.854 12.146v38.191h16.926Zm23.248-36.814c.646-8.514 6.202-13.523 12.921-13.523 6.589 0 12.791 4.383 13.05 13.523h-25.971Zm43.284 10.268c0-24.417-10.336-36.688-29.846-36.688-19.511 0-30.752 12.27-30.752 31.304 0 22.289 10.595 33.558 31.785 33.558 13.567 0 24.033-7.137 27.909-19.784h-17.314c-1.163 4.257-5.943 6.887-11.37 6.887-8.269 0-13.696-6.01-14.213-15.277h43.801Z"/><path fill="#84010B" d="M561.315 94.304V50.73c0-12.272-9.044-19.66-22.094-19.66-8.528 0-16.281 4.133-18.736 9.642V10.158h-16.797v84.146h16.797V58.993c0-8.264 4.652-15.026 13.05-15.026 7.624 0 10.854 2.88 10.854 12.146v38.191h16.926Z"/><path fill="#84010B" d="M610.703 94.304V10.158h-16.797v84.146h16.797Zm23.848 0V10.158h-16.797v84.146h16.797Z"/></svg>
